X: 87
T: Grigsby’s hornpipe
B: canberra pickers and fiddlers
B: old time tunes update
B: tunes
M:4/4
L:1/16
Q: 1/4=180
K:D
V:1 
c6c2[cc]4c4-|c2c2B2A2B2F2F4|c6B2c2B2A4-|A2c2B2G2A4A4:|
e4A2B2c4A4|e4A2B2c2A2A4|e4A2B2c2B2A2c2|BcB2A2B2c2A2A4:|
f4c2f2e4c2e2|f2e2c2f2e2c2A2c2|e2f2c2f2e2c2A2c2|BcB2A2B2c2A2A4:|
a4c2e2e4c4|a4A2c2B2A2A4|a4c2e2e4c4|BcB2A2B2c2A2A4:|
c6c2[cc]4c4-|c2c2B2A2B2F2F4|c6B2c2B2A4-|A2c2B2G2A4A4:|
E2E2C2E2A,2C2E2C2|E2E2C2E2B,2B,2B,2C2|E2E2C2E2A,2C2E2C2|B,2A,2B,2A,2C2A,2A,4:|
E12E4-|E4C2A,2B,2B,2B,4|[B,-E-]8[B,E]2E2E2A,2|B,CB,2A,2B,2C2A,2A,4:|
E2E2C2A,2B,2C2E2C2|E2C2A,2C2B,2B,2B,2C2|E2C2A,2B,2C2B,2A,2C2|B,CB,2A,2B,2C2A,2A,4:|
% abcbook-tune_id 67a7d9ec04f70e77532a0fd3
% abcbook-tune_composer_id 
% abcbook-link-0 https://www.youtube.com/watch?v=PeDN02PiQjs
% abcbook-link-title-0 Grigsby&#39;s Hornpipe
% abcbook-boost 0
% abcbook-difficulty 0
% abcbook-tags old time tunes
% abcbook-tablature 
% abcbook-transpose 
% abcbook-tuning AEAC#
% abcbook-lastupdated 1739095062612
% abcbook-src-url 
% abcbook-soundfonts 
% abcbook-repeats 1


